assets/lighthouse/original.svg

<svg viewBox="0 0 24 24" xmlns="http://www.w3.org/2000/svg" fill="#F44B21"><path d="m12 0 5.5 3.5v5h2.5v3h-2.25l2 12.5h-15.5l2-12.5h-2.25v-3h2.5v-4.97zm2.94 13.25-6.22 2.26-.72 4.53 7.5-2.75zm-2.94-9.69-2.5 1.61v3.33h5v-3.35z"/></svg>

<svg xmlns="http://www.w3.org/2000/svg" fill="#f44b21" viewBox="0 0 24 24"><path d="m12 0 5.5 3.5v5H20v3h-2.25l2 12.5H4.25l2-12.5H4v-3h2.5V3.53zm2.94 13.25-6.22 2.26L8 20.04l7.5-2.75zM12 3.56 9.5 5.17V8.5h5V5.15z"/></svg>
